assets/svg/action_profile_follow.svg

<svg width="80" height="80" viewBox="0 0 80 80" fill="none" xmlns="http://www.w3.org/2000/svg">
<path d="M53.6781 25.6859H53.2078L53.2141 14.7141C53.2156 11.3062 51.8906 8.10156 49.4812 5.69062C47.0719 3.28125 43.8688 1.95312 40.4609 1.95312H35.2703C32.4625 1.95312 29.7219 2.74219 27.3438 4.23438L25.3859 5.46406C24.9096 5.76376 24.3581 5.92248 23.7953 5.92188C20.7203 5.92188 18.2172 8.42344 18.2172 11.5V25.6859H17.7547C16.5406 25.6859 15.4109 26.2313 14.6547 27.1813C13.8984 28.1313 13.6234 29.3563 13.8969 30.5391L14.325 32.3891C14.7437 34.1937 16.3297 35.4547 18.1812 35.4547H18.6797C19.2547 41.0422 21.8891 46.1797 25.9688 49.9031L26.0312 50.4609C26.1812 51.8172 26.0031 53.2078 25.5141 54.4812C25.4614 54.6179 25.3808 54.7421 25.2775 54.8459C25.1742 54.9498 25.0504 55.031 24.9141 55.0844L12.2344 60.0391C9.19219 61.2281 6.61094 63.2812 4.76875 65.9797C2.92656 68.6766 1.95312 71.8297 1.95312 75.0953V77.5C1.95312 77.8016 2.19844 78.0469 2.5 78.0469C2.80156 78.0469 3.04688 77.8016 3.04688 77.5V75.0953C3.04688 72.05 3.95469 69.1109 5.67188 66.5969C7.38906 64.0813 9.79688 62.1672 12.6328 61.0594L21.9172 57.4313C23.3094 59.9406 25.3078 62 27.725 63.4062C30.1266 64.8047 32.8906 65.5438 35.7156 65.5438C38.5422 65.5438 41.3047 64.8047 43.7062 63.4062C46.1234 62 48.1219 59.9391 49.5141 57.4313L51.0641 58.0359C51.1297 58.0609 51.1969 58.0734 51.2625 58.0734C51.3899 58.0733 51.5133 58.0287 51.6113 57.9473C51.7093 57.8659 51.7759 57.7528 51.7994 57.6275C51.8229 57.5023 51.802 57.3728 51.7402 57.2614C51.6784 57.1499 51.5796 57.0636 51.4609 57.0172L46.5156 55.0844C46.3794 55.0307 46.2557 54.9494 46.1525 54.8456C46.0492 54.7418 45.9686 54.6178 45.9156 54.4812C45.4254 53.2015 45.248 51.8231 45.3984 50.4609L45.4609 49.9016C49.5375 46.1797 52.1703 41.0422 52.7453 35.4547H53.2484C55.1016 35.4547 56.6875 34.1937 57.1047 32.3891L57.5328 30.5391C57.8062 29.3563 57.5312 28.1328 56.775 27.1813C56.0187 26.2297 54.8922 25.6859 53.6781 25.6859ZM19.3109 11.5C19.3109 9.02812 21.3219 7.01562 23.7953 7.01562C24.5637 7.01606 25.3166 6.79941 25.9672 6.39062L27.925 5.16094C30.1256 3.77883 32.6717 3.04604 35.2703 3.04688H40.4609C43.5766 3.04688 46.5063 4.26094 48.7078 6.46406C50.9109 8.66875 52.1219 11.5984 52.1203 14.7141L52.1125 26.2203L52.0672 27.2047L50.3547 26.2234C50.1916 26.1298 50.0561 25.9949 49.9617 25.8322C49.8673 25.6696 49.8175 25.4849 49.8172 25.2969V19.4906C49.8172 17.0734 47.8516 15.1078 45.4344 15.1078H25.9953C23.5781 15.1078 21.6125 17.0734 21.6125 19.4906V25.2969C21.6125 25.6781 21.4062 26.0344 21.075 26.2234L19.3562 27.2078L19.3109 26.2188V11.5ZM18.1828 34.3609C16.8422 34.3609 15.6938 33.4484 15.3906 32.1422L14.9625 30.2922C14.7641 29.4359 14.9641 28.55 15.5109 27.8625C16.0578 27.175 16.875 26.7797 17.7547 26.7797H18.2422L18.5844 34.1828C18.5875 34.2422 18.5922 34.3 18.5953 34.3594H18.1828V34.3609ZM22.9453 57.0281L24.8969 56.2656C25.3656 56.9656 25.8922 57.6109 26.4703 58.1969C25.8734 58.9375 25.7031 59.9062 25.9453 60.775C24.775 59.7234 23.7594 58.4656 22.9453 57.0281ZM44.8953 54.8734C45.0312 55.2266 45.2578 55.5359 45.5469 55.7703C43.3203 59.0219 39.6844 60.9469 35.7141 60.9469C31.7438 60.9469 28.1094 59.0219 25.8813 55.7703C26.1703 55.5359 26.3969 55.2266 26.5328 54.8734C27.0156 53.6187 27.2297 52.2625 27.1625 50.9203C28.3281 51.8453 29.5938 52.6625 30.9469 53.3516C32.4391 54.1125 34.075 54.4922 35.7125 54.4922C37.35 54.4922 38.9859 54.1125 40.4781 53.3516C41.8313 52.6625 43.0969 51.8453 44.2625 50.9203C44.1984 52.2625 44.4141 53.6187 44.8953 54.8734ZM39.9844 52.3781C37.3109 53.7406 34.1203 53.7406 31.4422 52.375C24.5422 48.8594 20.0344 41.8688 19.6766 34.1328L19.4141 28.4375L21.6187 27.1734C22.2891 26.7891 22.7063 26.0703 22.7063 25.2984V19.4922C22.7063 17.6781 24.1812 16.2031 25.9953 16.2031H45.4375C47.2516 16.2031 48.7266 17.6781 48.7266 19.4922V25.2984C48.7266 26.0719 49.1438 26.7891 49.8141 27.1734L52.0141 28.4344L51.7531 34.1297C51.3953 41.8672 46.8875 48.8594 39.9844 52.3781ZM56.4688 30.2922L56.0406 32.1422C55.7375 33.4484 54.5906 34.3609 53.2484 34.3609H52.8312C52.8344 34.3 52.8406 34.2406 52.8422 34.1797L53.1812 26.7812H53.6766C54.5547 26.7812 55.3734 27.1766 55.9203 27.8641C56.4672 28.5516 56.6672 29.4359 56.4688 30.2922Z" fill="#9A9A9A"/>
<path fill-rule="evenodd" clip-rule="evenodd" d="M10.2074 69H36.7936C37.46 69 38 69.7775 38 70.7352V78.2648C38 79.2225 37.459 80 36.7926 80H10.2074C9.54097 80 9 79.2225 9 78.2648V70.7352C9 69.7775 9.54097 69 10.2074 69ZM13 72C12.7239 72 12.5 72.2239 12.5 72.5C12.5 72.7761 12.7239 73 13 73H32C32.2761 73 32.5 72.7761 32.5 72.5C32.5 72.2239 32.2761 72 32 72H13ZM13 76C12.7239 76 12.5 76.2239 12.5 76.5C12.5 76.7761 12.7239 77 13 77H28C28.2761 77 28.5 76.7761 28.5 76.5C28.5 76.2239 28.2761 76 28 76H13Z" fill="#E1EAF8"/>
<rect x="53" y="55" width="24" height="24" rx="12" fill="#0166FF"/>
<path d="M68.3536 65.5214C68.1583 65.3262 67.8417 65.3262 67.6464 65.5214C67.4512 65.7167 67.4512 66.0333 67.6464 66.2286L68.3536 65.5214ZM69.5 67.375L69.1464 67.7286C69.3417 67.9238 69.6583 67.9238 69.8536 67.7286L69.5 67.375ZM72.4786 65.1036C72.6738 64.9083 72.6738 64.5917 72.4786 64.3964C72.2833 64.2012 71.9667 64.2012 71.7714 64.3964L72.4786 65.1036ZM65.7 63.4C65.7 64.4493 64.8493 65.3 63.8 65.3V66.3C65.4016 66.3 66.7 65.0016 66.7 63.4H65.7ZM63.8 65.3C62.7507 65.3 61.9 64.4493 61.9 63.4H60.9C60.9 65.0016 62.1984 66.3 63.8 66.3V65.3ZM61.9 63.4C61.9 62.3507 62.7507 61.5 63.8 61.5V60.5C62.1984 60.5 60.9 61.7984 60.9 63.4H61.9ZM63.8 61.5C64.8493 61.5 65.7 62.3507 65.7 63.4H66.7C66.7 61.7984 65.4016 60.5 63.8 60.5V61.5ZM68.1 70.3C68.1 71.089 68.0731 71.5048 67.6843 71.8215C67.4706 71.9955 67.1077 72.1699 66.4758 72.2978C65.8462 72.4252 64.9828 72.5 63.8 72.5V73.5C65.0172 73.5 65.9538 73.4237 66.6742 73.2779C67.3923 73.1325 67.9294 72.9115 68.3157 72.5969C69.1269 71.9363 69.1 71.0021 69.1 70.3H68.1ZM63.8 72.5C62.6172 72.5 61.7538 72.4252 61.1242 72.2978C60.4923 72.1699 60.1294 71.9955 59.9157 71.8215C59.5269 71.5048 59.5 71.089 59.5 70.3H58.5C58.5 71.0021 58.4731 71.9363 59.2843 72.5969C59.6706 72.9115 60.2077 73.1325 60.9258 73.2779C61.6462 73.4237 62.5828 73.5 63.8 73.5V72.5ZM59.5 70.3C59.5 69.8153 59.8546 69.2746 60.651 68.8266C61.4318 68.3874 62.5441 68.1 63.8 68.1V67.1C62.4049 67.1 61.1172 67.417 60.1608 67.955C59.22 68.4842 58.5 69.2936 58.5 70.3H59.5ZM63.8 68.1C65.0559 68.1 66.1682 68.3874 66.949 68.8266C67.7454 69.2746 68.1 69.8153 68.1 70.3H69.1C69.1 69.2936 68.38 68.4842 67.4392 67.955C66.4828 67.417 65.1951 67.1 63.8 67.1V68.1ZM67.6464 66.2286L69.1464 67.7286L69.8536 67.0214L68.3536 65.5214L67.6464 66.2286ZM69.8536 67.7286L72.4786 65.1036L71.7714 64.3964L69.1464 67.0214L69.8536 67.7286Z" fill="white"/>
</svg>

<svg xmlns="http://www.w3.org/2000/svg" width="80" height="80" fill="none"><path fill="#9A9A9A" d="M53.678 25.686h-.47l.006-10.972a12.67 12.67 0 0 0-3.733-9.023 12.67 12.67 0 0 0-9.02-3.738h-5.19c-2.809 0-5.55.79-7.927 2.281l-1.958 1.23a3 3 0 0 1-1.59.458 5.584 5.584 0 0 0-5.579 5.578v14.186h-.462a3.94 3.94 0 0 0-3.1 1.495 3.94 3.94 0 0 0-.758 3.358l.428 1.85a3.94 3.94 0 0 0 3.856 3.066h.499a22.74 22.74 0 0 0 7.289 14.448l.062.558a8.6 8.6 0 0 1-.517 4.02 1.06 1.06 0 0 1-.6.603l-12.68 4.955a16.1 16.1 0 0 0-7.465 5.94 16.1 16.1 0 0 0-2.816 9.116V77.5a.547.547 0 0 0 1.094 0v-2.405c0-3.045.908-5.984 2.625-8.498a15 15 0 0 1 6.96-5.538l9.285-3.628c1.392 2.51 3.39 4.569 5.808 5.975a15.9 15.9 0 0 0 7.99 2.138c2.827 0 5.59-.74 7.991-2.138 2.417-1.406 4.416-3.467 5.808-5.975l1.55.605a.547.547 0 0 0 .397-1.019l-4.945-1.933a1.06 1.06 0 0 1-.6-.603 8.6 8.6 0 0 1-.518-4.02l.063-.56a22.74 22.74 0 0 0 7.284-14.446h.503a3.94 3.94 0 0 0 3.857-3.066l.428-1.85a3.94 3.94 0 0 0-.758-3.358 3.93 3.93 0 0 0-3.097-1.495M19.311 11.5a4.49 4.49 0 0 1 4.484-4.484c.769 0 1.522-.217 2.172-.625l1.958-1.23a13.8 13.8 0 0 1 7.345-2.114h5.19c3.117 0 6.046 1.214 8.248 3.417a11.59 11.59 0 0 1 3.412 8.25l-.008 11.506-.045.985-1.712-.982a1.07 1.07 0 0 1-.538-.926V19.49a4.387 4.387 0 0 0-4.383-4.383H25.995a4.387 4.387 0 0 0-4.382 4.383v5.806c0 .381-.207.737-.538.926l-1.719.985-.045-.99zm-1.128 22.86a2.854 2.854 0 0 1-2.792-2.218l-.428-1.85a2.85 2.85 0 0 1 .548-2.43 2.85 2.85 0 0 1 2.244-1.082h.487l.342 7.403.011.176zm4.762 22.668 1.952-.762q.705 1.051 1.573 1.93a2.88 2.88 0 0 0-.525 2.579 14.9 14.9 0 0 1-3-3.747m21.95-2.155c.136.354.363.663.652.897a11.85 11.85 0 0 1-9.833 5.177 11.85 11.85 0 0 1-9.833-5.177c.29-.234.516-.543.652-.897a9.7 9.7 0 0 0 .63-3.953 22.6 22.6 0 0 0 3.784 2.432c1.492.76 3.128 1.14 4.765 1.14 1.638 0 3.274-.38 4.766-1.14a22.6 22.6 0 0 0 3.785-2.432 9.8 9.8 0 0 0 .632 3.953m-4.91-2.495a9.43 9.43 0 0 1-8.543-.003 21.64 21.64 0 0 1-11.765-18.242l-.263-5.696 2.205-1.264a2.17 2.17 0 0 0 1.087-1.875v-5.806a3.29 3.29 0 0 1 3.29-3.289h19.442a3.29 3.29 0 0 1 3.289 3.29v5.805c0 .774.417 1.491 1.087 1.875l2.2 1.261-.26 5.696a21.64 21.64 0 0 1-11.77 18.248m16.484-22.086-.428 1.85a2.85 2.85 0 0 1-2.793 2.219h-.417c.003-.061.01-.12.011-.181l.34-7.399h.495c.878 0 1.696.396 2.243 1.083.547.688.747 1.572.549 2.428"/><path fill="#E1EAF8" fill-rule="evenodd" d="M10.207 69h26.587c.666 0 1.206.778 1.206 1.735v7.53c0 .957-.541 1.735-1.207 1.735H10.207C9.541 80 9 79.222 9 78.265v-7.53C9 69.778 9.541 69 10.207 69M13 72a.5.5 0 0 0 0 1h19a.5.5 0 0 0 0-1zm0 4a.5.5 0 0 0 0 1h15a.5.5 0 0 0 0-1z" clip-rule="evenodd"/><rect width="24" height="24" x="53" y="55" fill="#0166FF" rx="12"/><path fill="#fff" d="M68.354 65.521a.5.5 0 0 0-.708.708zm1.146 1.854-.354.354a.5.5 0 0 0 .708 0zm2.979-2.271a.5.5 0 0 0-.708-.708zM65.7 63.4a1.9 1.9 0 0 1-1.9 1.9v1a2.9 2.9 0 0 0 2.9-2.9zm-1.9 1.9a1.9 1.9 0 0 1-1.9-1.9h-1a2.9 2.9 0 0 0 2.9 2.9zm-1.9-1.9c0-1.05.85-1.9 1.9-1.9v-1a2.9 2.9 0 0 0-2.9 2.9zm1.9-1.9c1.05 0 1.9.85 1.9 1.9h1a2.9 2.9 0 0 0-2.9-2.9zm4.3 8.8c0 .789-.027 1.205-.416 1.522-.213.174-.576.348-1.208.476-.63.127-1.493.202-2.676.202v1c1.217 0 2.154-.076 2.874-.222.718-.146 1.255-.367 1.642-.681.81-.66.784-1.595.784-2.297zm-4.3 2.2c-1.183 0-2.046-.075-2.676-.202-.632-.128-.995-.302-1.208-.477-.39-.316-.416-.732-.416-1.521h-1c0 .702-.027 1.636.784 2.297.387.315.924.535 1.642.68.72.147 1.657.223 2.874.223zm-4.3-2.2c0-.485.355-1.025 1.151-1.473.78-.44 1.893-.727 3.149-.727v-1c-1.395 0-2.683.317-3.64.855-.94.53-1.66 1.339-1.66 2.345zm4.3-2.2c1.256 0 2.368.287 3.149.727.796.448 1.151.988 1.151 1.473h1c0-1.006-.72-1.816-1.66-2.345-.957-.538-2.245-.855-3.64-.855zm3.846-1.871 1.5 1.5.708-.708-1.5-1.5zm2.208 1.5 2.625-2.625-.708-.708-2.625 2.625z"/></svg>
